d1 $ n "0 0 0 [0 0?]"
# s "kick:1"
# legato 0.75
# orbit 0

d2
$ every 8 rev
$ (1/8) ~> n "0!4"
# s "bass:1"
# legato "0.5 0.2"
# orbit 1
# room 0.1

d3 $ n "0!8"
# s "bass"
# legato "0.5"
# orbit 2

d4
$ every 3 rev
$ n "0 0 [0 0] 0 [0 0] 0 [0 0] 0"
# s "closedhihat"
# legato "0.5"
# gain 0.76
# orbit 2

d5 $ n "0*16"
# up "[0 3 7 3]*4" + up "24"
# s "synth:16"
# gain 0.8
# orbit 0

hush

d1 $ s "kick" # room 0.1

d1 $ s "bd" # reverb 0.5 # reverbsize 0.7
